svg/system/shield_fill.svg

<?xml version="1.0" encoding="UTF-8"?>
<svg width="24px" height="24px" viewBox="0 0 24 24" version="1.1" xmlns="http://www.w3.org/2000/svg" xmlns:xlink="http://www.w3.org/1999/xlink">
    <title>shield_fill</title>
    <g id="页面-1" stroke="none" stroke-width="1" fill="none" fill-rule="evenodd">
        <g id="System" transform="translate(-1344.000000, -48.000000)" fill-rule="nonzero">
            <g id="shield_fill" transform="translate(1344.000000, 48.000000)">
                 <path d="M24,0 L24,24 L0,24 L0,0 L24,0 Z M12.5934901,23.257841 L12.5819402,23.2595131 L12.5108777,23.2950439 L12.4918791,23.2987469 L12.4918791,23.2987469 L12.4767152,23.2950439 L12.4056548,23.2595131 C12.3958229,23.2563662 12.3870493,23.2590235 12.3821421,23.2649074 L12.3780323,23.275831 L12.360941,23.7031097 L12.3658947,23.7234994 L12.3769048,23.7357139 L12.4804777,23.8096931 L12.4953491,23.8136134 L12.4953491,23.8136134 L12.5071152,23.8096931 L12.6106902,23.7357139 L12.6232938,23.7196733 L12.6232938,23.7196733 L12.6266527,23.7031097 L12.609561,23.275831 C12.6075724,23.2657013 12.6010112,23.2592993 12.5934901,23.257841 L12.5934901,23.257841 Z M12.8583906,23.1452862 L12.8445485,23.1473072 L12.6598443,23.2396597 L12.6498822,23.2499052 L12.6498822,23.2499052 L12.6471943,23.2611114 L12.6650943,23.6906389 L12.6699349,23.7034178 L12.6699349,23.7034178 L12.678386,23.7104931 L12.8793402,23.8032389 C12.8914285,23.8068999 12.9022333,23.8029875 12.9078286,23.7952264 L12.9118235,23.7811639 L12.8776777,23.1665331 C12.8752882,23.1545897 12.8674102,23.1470016 12.8583906,23.1452862 L12.8583906,23.1452862 Z M12.1430473,23.1473072 C12.1332178,23.1423925 12.1221763,23.1452606 12.1156365,23.1525954 L12.1099173,23.1665331 L12.0757714,23.7811639 C12.0751323,23.7926639 12.0828099,23.8018602 12.0926481,23.8045676 L12.108256,23.8032389 L12.3092106,23.7104931 L12.3186497,23.7024347 L12.3186497,23.7024347 L12.3225043,23.6906389 L12.340401,23.2611114 L12.337245,23.2485176 L12.337245,23.2485176 L12.3277531,23.2396597 L12.1430473,23.1473072 Z" id="MingCute" fill-rule="nonzero"></path>
                <path d="M12.7022,2.19521 L19.7022,4.82021 C20.4829,5.11294 21,5.85918 21,6.69287 L21,12.0556 C21,15.4645 19.074,18.5809 16.0249,20.1054 L12.6708,21.7825 C12.2485,21.9936 11.7515,21.9936 11.3292,21.7825 L7.97508,20.1054 C4.92602,18.5809 3,15.4645 3,12.0556 L3,6.69287 C3,5.85918 3.51715,5.11294 4.29775,4.82021 L11.2978,2.19521 C11.7505,2.02542 12.2495,2.02542 12.7022,2.19521 Z M12,7.99988 C11.48715,7.99988 11.0644908,8.38591566 11.0067275,8.8832579 L11,8.99988 L11,10.9999 L9,10.9999 C8.44772,10.9999 8,11.4476 8,11.9999 C8,12.51275 8.38604429,12.9354092 8.88337975,12.9931725 L9,12.9999 L11,12.9999 L11,14.9999 C11,15.5522 11.4477,15.9999 12,15.9999 C12.51285,15.9999 12.9355092,15.613873 12.9932725,15.1165239 L13,14.9999 L13,12.9999 L15,12.9999 C15.5523,12.9999 16,12.5522 16,11.9999 C16,11.48705 15.613973,11.0643908 15.1166239,11.0066275 L15,10.9999 L13,10.9999 L13,8.99988 C13,8.44759 12.5523,7.99988 12,7.99988 Z" id="形状" fill="#09244B"></path>
            </g>
        </g>
    </g>
</svg>

<svg xmlns="http://www.w3.org/2000/svg" width="24" height="24"><g fill="none" fill-rule="nonzero"><path d="M24 0v24H0V0h24ZM12.593 23.258l-.011.002-.071.035-.02.004-.014-.004-.071-.035c-.01-.004-.019-.001-.024.005l-.004.01-.017.428.005.02.01.013.104.074.015.004.012-.004.104-.074.012-.016.004-.017-.017-.427c-.002-.01-.009-.017-.017-.018Zm.265-.113-.013.002-.185.093-.01.01-.003.011.018.43.005.012.008.007.201.093c.012.004.023 0 .029-.008l.004-.014-.034-.614c-.003-.012-.01-.02-.02-.022Zm-.715.002a.023.023 0 0 0-.027.006l-.006.014-.034.614c0 .012.007.02.017.024l.015-.002.201-.093.01-.008.004-.011.017-.43-.003-.012-.01-.01-.184-.092Z"/><path fill="#09244B" d="m12.702 2.195 7 2.625A2 2 0 0 1 21 6.693v5.363a9 9 0 0 1-4.975 8.05l-3.354 1.676a1.5 1.5 0 0 1-1.342 0l-3.354-1.677A9 9 0 0 1 3 12.055V6.694A2 2 0 0 1 4.298 4.82l7-2.625a2 2 0 0 1 1.404 0ZM12 8a1 1 0 0 0-.993.883L11 9v2H9a1 1 0 0 0-.117 1.993L9 13h2v2a1 1 0 0 0 1.993.117L13 15v-2h2a1 1 0 0 0 .117-1.993L15 11h-2V9a1 1 0 0 0-1-1Z"/></g></svg>
